src/cmd/sc_dbqueryedit.svg

<?xml version="1.0" encoding="UTF-8" standalone="no"?>
<svg
   xmlns:dc="http://purl.org/dc/elements/1.1/"
   xmlns:cc="http://creativecommons.org/ns#"
   xmlns:rdf="http://www.w3.org/1999/02/22-rdf-syntax-ns#"
   xmlns:svg="http://www.w3.org/2000/svg"
   xmlns="http://www.w3.org/2000/svg"
   xmlns:sodipodi="http://sodipodi.sourceforge.net/DTD/sodipodi-0.dtd"
   xmlns:inkscape="http://www.inkscape.org/namespaces/inkscape"
   viewBox="0 0 16 16"
   version="1.1"
   id="svg6"
   sodipodi:docname="sc_dbqueryedit.svg"
   inkscape:version="0.92.4 (5da689c313, 2019-01-14)">
  <metadata
     id="metadata12">
    <rdf:RDF>
      <cc:Work
         rdf:about="">
        <dc:format>image/svg+xml</dc:format>
        <dc:type
           rdf:resource="http://purl.org/dc/dcmitype/StillImage" />
      </cc:Work>
    </rdf:RDF>
  </metadata>
  <defs
     id="defs10" />
  <sodipodi:namedview
     pagecolor="#ffffff"
     bordercolor="#666666"
     borderopacity="1"
     objecttolerance="10"
     gridtolerance="10"
     guidetolerance="10"
     inkscape:pageopacity="0"
     inkscape:pageshadow="2"
     inkscape:window-width="1920"
     inkscape:window-height="1011"
     id="namedview8"
     showgrid="true"
     inkscape:zoom="16"
     inkscape:cx="2.6999418"
     inkscape:cy="2.44645"
     inkscape:window-x="0"
     inkscape:window-y="32"
     inkscape:window-maximized="1"
     inkscape:current-layer="svg6">
    <inkscape:grid
       type="xygrid"
       id="grid828" />
  </sodipodi:namedview>
  <path
     d="M 14,4 C 14,2.8954305 11.313708,2 8,2 7.8022046,1.9967337 7.6040454,1.9967337 7.40625,2 4.3263646,2.102082 1.9848118,2.9683212 2,4 v 8 c 0.014188,0.709775 1.1558829,1.363871 3,1.71875 v -0.9375 C 3.7670053,12.596387 3.0290995,12.308142 3,12 V 9.09375 C 4.1034758,9.656867 5.9822031,9.9973863 8,10 V 9 C 5.2385763,9 3,8.5522847 3,8 V 5.09375 C 4.1034758,5.656867 5.9822031,5.9973863 8,6 10.017797,5.9973863 11.896524,5.656867 13,5.09375 13.474947,4.8353771 14,4.4963564 14,4 Z M 7.65625,2.9960938 C 7.7710236,2.9966062 7.8856749,2.9979091 8,3 10.761424,3 13,3.4477153 13,4 13,4.5522847 10.761424,5 8,5 5.2385763,5 3,4.5522847 3,4 2.9647189,3.5074207 4.7283817,3.0830808 7.15625,3 7.3224862,2.99703 7.4893618,2.99573 7.65625,2.99609 Z"
     id="path2"
     inkscape:connector-curvature="0"
     style="fill:#232629"
     sodipodi:nodetypes="cccccccccccsccccccsscccc" />
  <path
     inkscape:connector-curvature="0"
     style="fill:#762572;fill-opacity:1"
     d="m 13,6.0312504 -1,1 -5,4.9999996 v 2 H 9 V 14 l 1,-0.96875 4,-3.9999996 1,-1 z m -0.28125,1.6875 0.5625,0.59375 L 8.3125,13.3125 7.71875,12.71875 Z"
     id="path825" />
</svg>

<svg viewBox="0 0 16 16" xmlns="http://www.w3.org/2000/svg"><path d="m7.40625 2a6 2 0 0 0 -5.40625 2v8a6 2 0 0 0 3 1.71875v-.9375a5 1 0 0 1 -2-.78125v-2.90625a6 2 0 0 0 5 .90625 6 2 0 0 0 5-.90625v1.90625h1v-7a6 2 0 0 0 -6-2 6 2 0 0 0 -.59375 0zm.25.9960938a5 1 0 0 1 .34375.0039062 5 1 0 0 1 5 1 5 1 0 0 1 -5 1 5 1 0 0 1 -5-1 5 1 0 0 1 4.15625-1 5 1 0 0 1 .5-.0039062zm-4.65625 2.0976562a6 2 0 0 0 5 .90625 6 2 0 0 0 5-.90625v2.90625a5 1 0 0 1 -5 1 5 1 0 0 1 -5-1z" fill="#232629"/><path d="m7 12c-.5522847 0-1 .447715-1 1s.4477153 1 1 1 1-.447715 1-1-.4477153-1-1-1zm3 0c-.5522847 0-1 .447723-1 1s.4477153 1 1 1c.552285 0 1-.447723 1-1s-.447715-1-1-1zm3 0c-.552285 0-1 .447723-1 1s.447715 1 1 1 1-.447723 1-1-.447715-1-1-1z" fill="#e95420"/></svg>
